logo.svg

<svg xmlns="http://www.w3.org/2000/svg" xml:space="preserve" style="fill-rule:evenodd;clip-rule:evenodd;stroke-linejoin:round;stroke-miterlimit:2" viewBox="663.38 37.57 575.35 903.75"><path d="m1083.58 1875.72 551.48 318.4a47.66 47.66 0 0 1 23.82 41.27v105.94c0 8.51-2.27 16.7-6.38 23.83 0 0-437.8-252.76-545.3-314.83a47.245 47.245 0 0 1-23.62-40.92z" style="fill:#706bc8" transform="translate(-420.173 -1838.145)"/><path d="M1635.26 2604.84a47.228 47.228 0 0 1 23.62 40.91v133.69l-551.47-318.39a47.66 47.66 0 0 1-23.83-41.27v-105.94c0-8.52 2.27-16.71 6.38-23.83 0 0 437.8 252.76 545.3 314.83" style="fill:#55c5e4" transform="translate(-420.173 -1838.145)"/><path d="M790.407 1432.56a35.033 35.033 0 0 0-12.898 12.9c-9.647 16.7-4.036 38.3 12.495 48.13h-.006l-28.825-16.64a47.644 47.644 0 0 1-23.829-41.27v-105.94c0-17.03 9.083-32.76 23.829-41.27l498.417-287.73.24-.14a34.962 34.962 0 0 0 12.65-12.756c9.65-16.708 4.04-38.3-12.49-48.137h.01l28.82 16.642a47.648 47.648 0 0 1 23.83 41.273v105.938c0 17.03-9.08 32.76-23.83 41.27l-29.63 17.11.4-.26z" style="fill:#84ddea" transform="translate(-73.938 -854.05)"/><path d="M790.407 1686.24a35.08 35.08 0 0 0-12.898 12.89c-9.647 16.71-4.036 38.3 12.495 48.14h-.006l-28.825-16.64a47.656 47.656 0 0 1-23.829-41.27v-105.94c0-17.03 9.083-32.76 23.829-41.27l498.417-287.73.24-.14c5.09-2.99 9.5-7.29 12.65-12.76 9.65-16.71 4.04-38.3-12.49-48.14h.01l28.82 16.65a47.636 47.636 0 0 1 23.83 41.27v105.94c0 17.02-9.08 32.76-23.83 41.27l-29.63 17.1.4-.25z" style="fill:#997bc8" transform="translate(-73.938 -854.05)"/></svg>

<svg version="1.1" xmlns="http://www.w3.org/2000/svg" xmlns:xlink="http://www.w3.org/1999/xlink" xml:space="preserve" xmlns:serif="http://www.serif.com/" style="fill-rule:evenodd;clip-rule:evenodd;stroke-linejoin:round;stroke-miterlimit:2;" viewBox="663.38 37.57 575.35 903.75"><g transform="matrix(1,0,0,1,-31352.7,-1817.25)"><g transform="matrix(1,0,0,1,31062.7,-20.8972)"><g transform="matrix(1,0,0,1,-130.173,0.00185558)"><path style="fill:#706bc8;" d="M1083.58,1875.72L1635.06,2194.12C1649.8,2202.63 1658.88,2218.37 1658.88,2235.39C1658.88,2264.98 1658.88,2311.74 1658.88,2341.33C1658.88,2349.84 1656.61,2358.03 1652.5,2365.16C1652.5,2365.16 1214.7,2112.4 1107.2,2050.33C1092.58,2041.89 1083.58,2026.29 1083.58,2009.41C1083.58,1963.5 1083.58,1875.72 1083.58,1875.72Z"></path></g><g transform="matrix(1,0,0,1,-130.173,0.00185558)"><path style="fill:#55c5e4;" d="M1635.26,2604.84C1649.88,2613.28 1658.88,2628.87 1658.88,2645.75C1658.88,2691.67 1658.88,2779.44 1658.88,2779.44L1107.41,2461.05C1092.66,2452.53 1083.58,2436.8 1083.58,2419.78C1083.58,2390.19 1083.58,2343.42 1083.58,2313.84C1083.58,2305.32 1085.85,2297.13 1089.96,2290.01C1089.96,2290.01 1527.76,2542.77 1635.26,2604.84Z"></path></g><g transform="matrix(1,0,0,1,216.062,984.098)"><path style="fill:#84ddea;" d="M790.407,1432.56C785.214,1435.55 780.717,1439.9 777.509,1445.46C767.862,1462.16 773.473,1483.76 790.004,1493.59L789.998,1493.59L761.173,1476.95C746.427,1468.44 737.344,1452.71 737.344,1435.68C737.344,1406.09 737.344,1359.33 737.344,1329.74C737.344,1312.71 746.427,1296.98 761.173,1288.47L1259.59,1000.74L1259.83,1000.6C1264.92,997.617 1269.33,993.314 1272.48,987.844C1282.13,971.136 1276.52,949.544 1259.99,939.707L1260,939.707L1288.82,956.349C1303.57,964.862 1312.65,980.595 1312.65,997.622C1312.65,1027.21 1312.65,1073.97 1312.65,1103.56C1312.65,1120.59 1303.57,1136.32 1288.82,1144.83L1259.19,1161.94L1259.59,1161.68L790.407,1432.56Z"></path></g><g transform="matrix(1,0,0,1,216.062,984.098)"><path style="fill:#997bc8;" d="M790.407,1686.24C785.214,1689.23 780.717,1693.58 777.509,1699.13C767.862,1715.84 773.473,1737.43 790.004,1747.27L789.998,1747.27L761.173,1730.63C746.427,1722.12 737.344,1706.38 737.344,1689.36C737.344,1659.77 737.344,1613.01 737.344,1583.42C737.344,1566.39 746.427,1550.66 761.173,1542.15L1259.59,1254.42L1259.83,1254.28C1264.92,1251.29 1269.33,1246.99 1272.48,1241.52C1282.13,1224.81 1276.52,1203.22 1259.99,1193.38L1260,1193.38L1288.82,1210.03C1303.57,1218.54 1312.65,1234.27 1312.65,1251.3C1312.65,1280.89 1312.65,1327.65 1312.65,1357.24C1312.65,1374.26 1303.57,1390 1288.82,1398.51L1259.19,1415.61L1259.59,1415.36L790.407,1686.24Z"></path></g></g></g></svg>
